X: 4139
M: C
L: 1/8
K: Am
ue |\
d/c/B/A/ ^GB A<A, A,>B, | C>DE>^F G2(G<B) |\
(A/B/c) (B/c/d) A<A, A,>B, | C>DE>^G A3B |\
d/c/B/A/ B>^G A>E=G>E |
E<G B,>A, G,2 (G,A,/B,/) |\
(3CB,A, (3DCB, (3EDC (3B,CD | (3Edc (3BA^G A2-A |]\
(c/B/) |\
(3CB,A, (3DCB, (3EDC (3B,CD | (3Edc (3BA^G A2-A |]


